src/distro-icons/xubuntu.svg

<svg width="512" height="512" fill="none" xmlns="http://www.w3.org/2000/svg">
<g clip-path="url(#a)">
<circle cx="256" cy="256" r="256" fill="#fff"/>
<path fill-rule="evenodd" clip-rule="evenodd" d="M329.42 97.193c-7.533 7.919-21.234 90.863-17.736 107.374 2.002 9.452 9.254 9.02 12.955-.771 7.456-19.724 15.703-83.947 12.887-100.367-1.225-7.147-4.698-9.819-8.106-6.236Zm72.286 13.266c-13.061 6.016-50.433 66.144-57.842 93.061-3.49 12.682 1.356 21.322 9.088 16.201 12.309-8.154 59.609-98.742 56.03-107.308-1.145-2.739-3.941-3.49-7.276-1.954Zm-198.773 10.986c-24.608 5.278-28.652 27.822-14.115 78.707 2.798 9.797 2.652 10.42-2.437 10.39-6.372-.037-6.92-.768-13.581-18.116-16.343-42.569-35.016-57.085-52.054-40.466-12.527 12.222-13.589 32.512-3.445 65.854l1.687 5.546-4.054 11.946c-12.281 36.186-16.35 55.519-17.64 83.762-4.575 100.241 67.894 123.959 197.106 64.508 88.465-40.702 123.978-69.272 118.008-94.936-6.252-26.879-29.347-44.823-79.608-61.856-32.109-10.881-57.345-16.069-87.319-17.949l-4.759-.3-.242-5.6c-.133-3.081-.346-10.67-.472-16.864-.995-48.476-13.197-69.746-37.075-64.626Z" fill="#FBFBFB"/>
<path fill-rule="evenodd" clip-rule="evenodd" d="M239.574.29C96.755 9.488-10.922 134.067.648 276.718 11.98 416.46 133.48 521.092 273.389 511.595c142.463-9.67 249.509-133.967 237.963-276.312C500.054 95.977 379.005-8.687 239.574.291Zm94.483 95.912c4.939 2.554 5.226 21.425.859 56.43-5.84 46.801-13.293 66.462-21.385 56.415-4.923-6.111-1.938-40.945 7.149-83.393 5.46-25.514 8.414-32.018 13.377-29.452Zm73.359 14.147c4.236 2.967.068 14.771-17.682 50.077-25.961 51.639-39.507 68.594-45.897 57.444-5.084-8.87 7.55-39.534 30.961-75.15 16.854-25.641 27.352-36.06 32.618-32.371Zm-192.347 11.078c16.442 4.83 24.119 24.731 24.939 64.644.126 6.194.339 13.783.472 16.864l.242 5.6 4.759.3c29.974 1.88 55.21 7.068 87.319 17.949 50.26 17.033 73.356 34.977 79.608 61.856 5.385 23.153-21.927 47.763-90.914 81.919-55.977 27.713-86.77 38.703-121.243 43.269-79.235 10.493-113.102-30.227-100.574-120.922 2.02-14.619 6.819-32.734 15.257-57.6l4.054-11.946-1.688-5.546c-12.341-40.571-7.422-65.745 14.084-72.067 13.494-3.965 28.439 12.878 41.416 46.679 6.661 17.348 7.209 18.079 13.581 18.116 5.089.03 5.235-.593 2.437-10.39-12.252-42.89-11.171-65.213 3.62-74.717 5.971-3.838 16.727-5.742 22.631-4.008Z" fill="#0444AC"/>
</g>
<defs>
<clipPath id="a">
<path fill="#fff" d="M0 0h512v512H0z"/>
</clipPath>
</defs>
</svg>

<svg width="512" height="512" viewBox="0 0 512 512" fill="none" xmlns="http://www.w3.org/2000/svg">
<g clip-path="url(#clip0_2_547)">
<circle cx="256" cy="256" r="256" fill="white"/>
<path fill-rule="evenodd" clip-rule="evenodd" d="M329.42 97.193C321.887 105.112 308.186 188.056 311.684 204.567C313.686 214.019 320.938 213.587 324.639 203.796C332.095 184.072 340.342 119.849 337.526 103.429C336.301 96.2816 332.828 93.6102 329.42 97.193ZM401.706 110.459C388.645 116.475 351.273 176.603 343.864 203.52C340.374 216.202 345.22 224.842 352.952 219.721C365.261 211.567 412.561 120.979 408.982 112.413C407.837 109.674 405.041 108.923 401.706 110.459ZM202.933 121.445C178.325 126.723 174.281 149.267 188.818 200.152C191.616 209.949 191.47 210.572 186.381 210.542C180.009 210.505 179.461 209.774 172.8 192.426C156.457 149.857 137.784 135.341 120.746 151.96C108.219 164.182 107.157 184.472 117.301 217.814L118.988 223.36L114.934 235.306C102.653 271.492 98.5831 290.825 97.2941 319.068C92.7194 419.309 165.188 443.027 294.4 383.576C382.865 342.874 418.378 314.304 412.408 288.64C406.156 261.761 383.061 243.817 332.8 226.784C300.691 215.903 275.455 210.715 245.481 208.835L240.722 208.535L240.48 202.935C240.347 199.854 240.134 192.265 240.008 186.071C239.013 137.595 226.811 116.325 202.933 121.445Z" fill="#FBFBFB"/>
<path fill-rule="evenodd" clip-rule="evenodd" d="M239.574 0.290559C96.7552 9.48736 -10.9222 134.066 0.647681 276.717C11.9808 416.46 133.48 521.092 273.389 511.595C415.852 501.925 522.898 377.628 511.352 235.283C500.054 95.977 379.005 -8.68736 239.574 0.290559ZM334.057 96.2022C338.996 98.7558 339.283 117.627 334.916 152.632C329.076 199.433 321.623 219.094 313.531 209.047C308.608 202.936 311.593 168.102 320.68 125.654C326.14 100.14 329.094 93.6358 334.057 96.2022ZM407.416 110.349C411.652 113.316 407.484 125.12 389.734 160.426C363.773 212.065 350.227 229.02 343.837 217.87C338.753 209 351.387 178.336 374.798 142.72C391.652 117.079 402.15 106.66 407.416 110.349ZM215.069 121.427C231.511 126.257 239.188 146.158 240.008 186.071C240.134 192.265 240.347 199.854 240.48 202.935L240.722 208.535L245.481 208.835C275.455 210.715 300.691 215.903 332.8 226.784C383.06 243.817 406.156 261.761 412.408 288.64C417.793 311.793 390.481 336.403 321.494 370.559C265.517 398.272 234.724 409.262 200.251 413.828C121.016 424.321 87.1488 383.601 99.6774 292.906C101.697 278.287 106.496 260.172 114.934 235.306L118.988 223.36L117.3 217.814C104.959 177.243 109.878 152.069 131.384 145.747C144.878 141.782 159.823 158.625 172.8 192.426C179.461 209.774 180.009 210.505 186.381 210.542C191.47 210.572 191.616 209.949 188.818 200.152C176.566 157.262 177.647 134.939 192.438 125.435C198.409 121.597 209.165 119.693 215.069 121.427Z" fill="#0444AC"/>
</g>
<defs>
<clipPath id="clip0_2_547">
<rect width="512" height="512" fill="white"/>
</clipPath>
</defs>
</svg>
